packages/gamut-icons/src/gplus.svg

<?xml version="1.0" encoding="utf-8"?>
<!-- Generated by IcoMoon.io -->
<!DOCTYPE svg PUBLIC "-//W3C//DTD SVG 1.1//EN" "http://www.w3.org/Graphics/SVG/1.1/DTD/svg11.dtd">
<svg version="1.1" xmlns="http://www.w3.org/2000/svg" xmlns:xlink="http://www.w3.org/1999/xlink" width="16" height="16" viewBox="0 0 16 16">
<path fill="#444" d="M16 3.5h-2.1v2.1h-1.1v-2.1h-2.1v-1h2.1v-2.1h1.1v2.1h2.1v1zM10 12.3c0 1.6-1.5 3.5-5.1 3.5-2.7 0-4.9-1.2-4.9-3.1 0-1.5 0.9-3.4 5.4-3.4-0.7-0.5-0.8-1.3-0.4-2.1-2.6 0-4-1.5-4-3.4s1.4-3.6 4.3-3.6c0.7 0 4.6 0 4.6 0l-1 1.1h-1.2c0.8 0.4 1.3 1.4 1.3 2.5 0 1-0.6 1.8-1.4 2.5-1.4 1.1-1 1.7 0.5 2.8 1.4 1.1 1.9 1.9 1.9 3.2zM7.1 3.9c-0.2-1.6-1.3-3-2.5-3s-2.1 1.2-1.9 2.8c0.3 1.7 1.5 2.8 2.7 2.8 1.2 0.1 1.9-1 1.7-2.6zM8.4 12.5c0-1.3-1.2-2.6-3.3-2.6-1.8 0-3.4 1.2-3.4 2.5 0 1.4 1.3 2.6 3.2 2.6 2.4 0 3.5-1.1 3.5-2.5z"></path>
</svg>

<svg xmlns="http://www.w3.org/2000/svg" viewBox="0 0 16 16">
    <path fill="#444" d="M16 3.5h-2.1v2.1h-1.1V3.5h-2.1v-1h2.1V.4h1.1v2.1H16v1zm-6 8.8c0 1.6-1.5 3.5-5.1 3.5-2.7 0-4.9-1.2-4.9-3.1 0-1.5.9-3.4 5.4-3.4-.7-.5-.8-1.3-.4-2.1-2.6 0-4-1.5-4-3.4S2.4.2 5.3.2h4.6l-1 1.1H7.7C8.5 1.7 9 2.7 9 3.8c0 1-.6 1.8-1.4 2.5-1.4 1.1-1 1.7.5 2.8C9.5 10.2 10 11 10 12.3zM7.1 3.9c-.2-1.6-1.3-3-2.5-3S2.5 2.1 2.7 3.7C3 5.4 4.2 6.5 5.4 6.5c1.2.1 1.9-1 1.7-2.6zm1.3 8.6c0-1.3-1.2-2.6-3.3-2.6-1.8 0-3.4 1.2-3.4 2.5C1.7 13.8 3 15 4.9 15c2.4 0 3.5-1.1 3.5-2.5z"/>
</svg>
